static/img/motioneye-logo.svg

<?xml version="1.0" encoding="UTF-8" standalone="no"?>
<!-- Created with Inkscape (http://www.inkscape.org/) -->

<svg
   xmlns:dc="http://purl.org/dc/elements/1.1/"
   xmlns:cc="http://creativecommons.org/ns#"
   xmlns:rdf="http://www.w3.org/1999/02/22-rdf-syntax-ns#"
   xmlns:svg="http://www.w3.org/2000/svg"
   xmlns="http://www.w3.org/2000/svg"
   xmlns:sodipodi="http://sodipodi.sourceforge.net/DTD/sodipodi-0.dtd"
   xmlns:inkscape="http://www.inkscape.org/namespaces/inkscape"
   id="svg2"
   version="1.1"
   inkscape:version="0.48.4 r9939"
   width="64"
   height="64"
   xml:space="preserve"
   sodipodi:docname="motioneye-logo.svg"
   inkscape:export-filename="/home/ccrisan/projects/motioneye/static/img/motioneye-logo.png"
   inkscape:export-xdpi="960"
   inkscape:export-ydpi="960"><metadata
     id="metadata8"><rdf:RDF><cc:Work
         rdf:about=""><dc:format>image/svg+xml</dc:format><dc:type
           rdf:resource="http://purl.org/dc/dcmitype/StillImage" /><dc:title /></cc:Work></rdf:RDF></metadata><defs
     id="defs6" /><sodipodi:namedview
     pagecolor="#969696"
     bordercolor="#666666"
     borderopacity="1"
     objecttolerance="10"
     gridtolerance="10"
     guidetolerance="10"
     inkscape:pageopacity="0.41176471"
     inkscape:pageshadow="2"
     inkscape:window-width="1920"
     inkscape:window-height="1030"
     id="namedview4"
     showgrid="false"
     inkscape:zoom="1"
     inkscape:cx="36.80576"
     inkscape:cy="37.141088"
     inkscape:window-x="0"
     inkscape:window-y="25"
     inkscape:window-maximized="1"
     inkscape:current-layer="g10"
     showguides="true"
     inkscape:guide-bbox="true" /><g
     id="g10"
     inkscape:groupmode="layer"
     inkscape:label="ink_ext_XXXXXX"
     transform="matrix(1.25,0,0,-1.25,0,64)"><path
       style="fill:#ffffff;fill-opacity:1;stroke:none"
       d="m 32,6 c -5.264933,0 -10.15584,1.684955 -14.25,4.375 4.426748,0.474546 8.794165,1.616509 13.75,4.0625 5.014819,-2.5549 10.152222,-3.621792 14.78125,-4.15625 C 42.179879,7.5768125 37.280255,6 32,6 z m 17,5.59375 c -5.21085,0.03453 -12.330126,1.666208 -17.5,4.03125 -5.435679,-1.964064 -11.012887,-4.147356 -17.3125,-4 -0.419974,0.0099 -0.823167,0.03114 -1.25,0.0625 L 8,12.09375 l 4.6875,1.5625 c 6.429941,2.095118 12.084993,4.395085 17.0625,13.03125 1.154473,0 3.425649,5e-4 4.5,5e-4 4.957862,-8.587269 10.904708,-10.983331 17.03125,-13.03175 l 4.625,-1.5 -4.8125,-0.46875 C 50.437916,11.625136 49.744407,11.588818 49,11.59375 z M 12.65625,14.6875 C 8.5126665,19.293305 6,25.316864 6,32 6,46.359404 17.640596,58 32,58 46.359404,58 58,46.359404 58,32 58,25.341351 55.491547,19.287285 51.375,14.6875 49.406504,15.410957 47.442694,16.253379 45.5,17.34375 49.260018,18.43176 52,21.91463 52,26 c 0,4.945036 -4.027245,9 -9,9 -4.217962,0 -7.765819,-2.914031 -8.75,-6.8125 -1.243768,0 -3.31109,0 -4.5,0 C 28.774204,32.087724 25.219217,35 21,35 c -4.972755,0 -9.03125,-4.054964 -9.03125,-9 0,-4.133444 2.851912,-7.644 6.6875,-8.6875 -1.945667,-1.058808 -3.952016,-1.881003 -6,-2.625 z M 21,23 c -1.656854,0 -3,1.343146 -3,3 0,1.656854 1.343146,3 3,3 1.656854,0 3,-1.343146 3,-3 0,-1.656854 -1.343146,-3 -3,-3 z m 22,0 c -1.656854,0 -3,1.343146 -3,3 0,1.656854 1.343146,3 3,3 1.656854,0 3,-1.343146 3,-3 0,-1.656854 -1.343146,-3 -3,-3 z m -11,8 c 0.618234,2.299881 1.278866,4.581981 4,6 l -4,6 -4,-6 c 2.383634,-1.6888 3.483037,-3.758112 4,-6 z"
       transform="matrix(0.8,0,0,-0.8,0,51.2)"
       id="path3938"
       inkscape:connector-curvature="0"
       sodipodi:nodetypes="scccssccccccccccscsssccssccssccssssssssssccccc" /></g></svg>

<?xml version="1.0" encoding="UTF-8" standalone="no"?>
<!-- Created with Inkscape (http://www.inkscape.org/) -->
<svg id="svg2" xmlns:rdf="http://www.w3.org/1999/02/22-rdf-syntax-ns#" xmlns="http://www.w3.org/2000/svg" xml:space="preserve" viewBox="0 0 64 64" version="1.1" xmlns:cc="http://creativecommons.org/ns#" xmlns:dc="http://purl.org/dc/elements/1.1/"><metadata id="metadata8"><rdf:RDF><cc:Work rdf:about=""><dc:format>image/svg+xml</dc:format><dc:type rdf:resource="http://purl.org/dc/dcmitype/StillImage"/><dc:title/></cc:Work></rdf:RDF></metadata><g id="g10" transform="matrix(1.25,0,0,-1.25,0,64)"><path id="path3938" d="m32,6c-5.2649,0-10.156,1.685-14.25,4.375,4.4267,0.47455,8.7942,1.6165,13.75,4.0625,5.0148-2.5549,10.152-3.6218,14.781-4.1562-4.101-2.7052-9.001-4.282-14.281-4.282zm17,5.5938c-5.2108,0.03453-12.33,1.6662-17.5,4.0312-5.4357-1.9641-11.013-4.1474-17.312-4-0.41997,0.0099-0.82317,0.03114-1.25,0.0625l-4.938,0.406,4.6875,1.5625c6.4299,2.0951,12.085,4.3951,17.062,13.031,1.1545,0,3.4256,0.0005,4.5,0.0005,4.9579-8.5873,10.905-10.983,17.031-13.032l4.625-1.5-4.8125-0.46875c-0.656-0.062-1.35-0.098-2.094-0.093zm-36.344,3.094c-4.1433,4.605-6.656,10.629-6.656,17.312,0,14.359,11.641,26,26,26s26-11.641,26-26c0-6.659-2.508-12.713-6.625-17.312-1.968,0.723-3.932,1.565-5.875,2.656,3.76,1.088,6.5,4.571,6.5,8.656,0,4.945-4.0272,9-9,9-4.218,0-7.7658-2.914-8.75-6.8125h-4.5c-0.976,3.9-4.531,6.812-8.75,6.812-4.9728,0-9.0312-4.055-9.0312-9,0-4.1334,2.8519-7.644,6.6875-8.6875-1.9457-1.0588-3.952-1.881-6-2.625zm8.344,8.312c-1.6569,0-3,1.3431-3,3s1.3431,3,3,3,3-1.3431,3-3-1.3431-3-3-3zm22,0c-1.6569,0-3,1.3431-3,3s1.3431,3,3,3,3-1.3431,3-3-1.3431-3-3-3zm-11,8c0.61823,2.2999,1.2789,4.582,4,6l-4,6-4-6c2.3836-1.6888,3.483-3.7581,4-6z" transform="matrix(0.8,0,0,-0.8,0,51.2)" fill="#FFF"/></g></svg>
